picto/emergency-window-with-escape-ladder-right-framed.svg

<svg class="color-immutable" width="30" height="30" viewBox="0 0 30 30" fill="none" xmlns="http://www.w3.org/2000/svg"><path d="M30 0H0V30H30V0Z" fill="#237F52"/><path d="M25.5 3C26.325 3 27 3.675 27 4.5V25.5C27 26.325 26.325 27 25.5 27H4.5C3.675 27 3 26.325 3 25.5V4.5C3 3.675 3.675 3 4.5 3H25.5ZM25.5 2.625H4.5C3.46613 2.625 2.625 3.46613 2.625 4.5V25.5C2.625 26.5339 3.46613 27.375 4.5 27.375H25.5C26.5339 27.375 27.375 26.5339 27.375 25.5V4.5C27.375 3.46613 26.5339 2.625 25.5 2.625Z" fill="white"/><path d="M17.9245 8.25C18.4841 8.25 18.9376 8.70285 18.9376 9.2625C18.9376 9.82155 18.484 10.2751 17.9245 10.2751C17.3662 10.2751 16.9126 9.82155 16.9126 9.2625C16.9126 8.70285 17.3662 8.25 17.9245 8.25Z" fill="white"/><path d="M10.7791 15L15.1822 10.5963H14.1534L12.7084 12.0424C12.6395 12.1106 12.5476 12.1485 12.4507 12.1485C12.25 12.1485 12.0871 11.9854 12.0871 11.7853C12.0871 11.688 12.1254 11.5959 12.1937 11.5283L13.7262 9.99637C13.823 9.89902 13.9558 9.84367 14.0935 9.84367H15.9085C16.6267 9.84367 17.2081 10.426 17.2081 11.1424V12.9606H18.688C18.9037 12.9606 19.078 13.1343 19.078 13.3501C19.078 13.5657 18.9037 13.74 18.688 13.74H16.8442C16.629 13.74 16.4543 13.5657 16.4543 13.3501V11.8956L14.7463 13.6046L16.3027 15.1609C16.4007 15.2596 16.4543 15.3907 16.4543 15.5294V18.6742C16.4543 18.961 16.2222 19.1942 15.9354 19.1942C15.6486 19.1942 15.4156 18.961 15.4156 18.6742V15.8173L13.4598 13.8625L12.3222 15H10.7791Z" fill="white"/><path d="M16.125 14.5856L15.2812 13.7419V13.4673L16.125 12.623V14.5856Z" fill="white"/><path d="M16.125 6V9.57757C16.0542 9.56782 15.9821 9.56243 15.9086 9.56243H15.2812V6.84375H6.84375V15.2812H14.4814L15.1344 15.9339V16.125H6V6H16.125Z" fill="white"/><path d="M23.5866 6.00195C23.392 6.0216 23.2501 6.1971 23.2501 6.3927V7.3125H18.7501C18.7484 7.3125 18.7471 7.31115 18.7471 7.3095V6.39525C18.7471 6.19822 18.6042 6.02025 18.408 6.00172C18.1858 5.98072 17.9971 6.1569 17.9971 6.375V7.97242C18.2808 7.98825 18.5408 8.09422 18.7471 8.26432V7.69042C18.7471 7.68877 18.7484 7.68742 18.7501 7.68742H23.2501V10.3124H18.7501C18.7484 10.3124 18.7471 10.3111 18.7471 10.3094V10.2606C18.5408 10.4307 18.2808 10.5367 17.9971 10.5526V12.6793H18.688C18.708 12.6793 18.7276 12.6806 18.7471 12.6823V10.6905C18.7471 10.6888 18.7484 10.6875 18.7501 10.6875H23.2501V13.3125H19.3576C19.3582 13.325 19.3594 13.3374 19.3594 13.3501C19.3594 13.4731 19.3255 13.5882 19.2675 13.6875H23.2501V16.3125H18.7501C18.7484 16.3125 18.7471 16.3111 18.7471 16.3095V14.0182C18.7276 14.02 18.708 14.0212 18.688 14.0212H17.9971V23.6047C17.9971 23.8018 18.1399 23.9797 18.3361 23.9983C18.5584 24.0193 18.7471 23.8431 18.7471 23.625V22.6905C18.7471 22.6888 18.7484 22.6875 18.7501 22.6875H23.2501V23.6073C23.2501 23.8028 23.392 23.9784 23.5866 23.998C23.8099 24.0206 24.0001 23.8439 24.0001 23.625V6.375C24.0001 6.15607 23.8099 5.97937 23.5866 6.00195ZM23.2501 22.3125H18.7501C18.7484 22.3125 18.7471 22.3111 18.7471 22.3095V19.6905C18.7471 19.6888 18.7484 19.6875 18.7501 19.6875H23.2501V22.3125ZM23.2501 19.3125H18.7501C18.7484 19.3125 18.7471 19.3111 18.7471 19.3095V16.6905C18.7471 16.6888 18.7484 16.6875 18.7501 16.6875H23.2501V19.3125Z" fill="white"/></svg>

<svg class="color-immutable" width="30" height="30" viewBox="0 0 30 30" fill="none" xmlns="http://www.w3.org/2000/svg"><g clip-path="url(#a)"><path d="M30 0H0v30h30V0Z" fill="#237F52"/><path d="M25.5 3c.825 0 1.5.675 1.5 1.5v21c0 .825-.675 1.5-1.5 1.5h-21c-.825 0-1.5-.675-1.5-1.5v-21C3 3.675 3.675 3 4.5 3h21Zm0-.375h-21A1.877 1.877 0 0 0 2.625 4.5v21c0 1.034.841 1.875 1.875 1.875h21a1.877 1.877 0 0 0 1.875-1.875v-21A1.877 1.877 0 0 0 25.5 2.625Z" fill="#fff"/><path d="M17.924 8.25a1.012 1.012 0 1 1 .002 2.025 1.012 1.012 0 0 1-.002-2.025ZM10.78 15l4.402-4.404h-1.029l-1.445 1.446a.365.365 0 0 1-.62-.257.36.36 0 0 1 .106-.257l1.532-1.532a.52.52 0 0 1 .367-.152h1.816a1.3 1.3 0 0 1 1.3 1.298v1.819h1.479a.39.39 0 1 1 0 .779h-1.844a.39.39 0 0 1-.39-.39v-1.454l-1.708 1.709 1.557 1.556a.52.52 0 0 1 .151.368v3.145a.52.52 0 1 1-1.038 0v-2.857l-1.956-1.954L12.322 15H10.78Z" fill="#fff"/><path d="m16.125 14.586-.844-.844v-.275l.844-.844v1.963Z" fill="#fff"/><path d="M16.125 6v3.578a1.584 1.584 0 0 0-.216-.016h-.628V6.844H6.844v8.437h7.637l.653.653v.191H6V6h10.125ZM23.587 6.002a.387.387 0 0 0-.337.39v.92h-4.5a.003.003 0 0 1-.003-.003v-.914c0-.197-.143-.375-.339-.393a.376.376 0 0 0-.41.373v1.597c.283.016.543.122.75.292V7.69c0-.001 0-.003.002-.003h4.5v2.625h-4.5a.003.003 0 0 1-.003-.003v-.048c-.206.17-.466.276-.75.292v2.126h.691l.06.003V10.69c0-.001 0-.002.002-.002h4.5v2.624h-3.892l.001.038a.667.667 0 0 1-.092.338h3.983v2.624h-4.5a.003.003 0 0 1-.003-.003v-2.29a.64.64 0 0 1-.059.002h-.69v9.584c0 .197.142.375.338.393a.376.376 0 0 0 .411-.373v-.934c0-.002.001-.003.003-.003h4.5v.92c0 .195.142.37.337.39a.376.376 0 0 0 .413-.373V6.375a.376.376 0 0 0-.413-.373Zm-.337 16.31h-4.5a.003.003 0 0 1-.003-.003V19.69c0-.001.001-.003.003-.003h4.5v2.625Zm0-3h-4.5a.003.003 0 0 1-.003-.003V16.69c0-.001.001-.003.003-.003h4.5v2.625Z" fill="#fff"/></g><defs><clipPath id="a"><path fill="#fff" d="M0 0h30v30H0z"/></clipPath></defs></svg>
